X:1
T:Christianity
T:F Major             Jacob French, 1802
T:Isaac Watts, 1709 (Hymn 129, Book 2)            88. 88. (L. M.) 
T:Transcribed from Harmony of Harmony, 1802.
%%score [ 1 2 3 4 ]
L:1/8
Q:1/4=110
M:2/2
K:F
V:1 treble nm="Tr." snm="Tr."
V:2 treble nm="C." snm="C."
V:3 treble-8 nm="T." snm="T."
V:4 bass nm="B." snm="B."
V:1
 c2 | f2 c2 d2 f2 | fc d2 c2 c2 | cB A2 B2 A2 | A2 G2 G2 G2 | A2 B2 c2 cB | AB c2 c2 c2 | %7
 cf ed e4 | c2 c d e2 (3fed | c2 c2 c4- | c2 z4 A2 | c2 c2 B2 A2 | d2 c2 c3 c | c2 A2 Bc dc | %14
 BA/B/ cd G4 | c2 f c d2 c2 | AG F2 G3 G | A>Bc f/e/ d>cd/e/ f | ed cB A4 || %19
[M:6/4] c2 f2 f2 (f2 e2) d2 | (c2 A2) A2 A4 G2 | (F2 B2) AF G4 AG | (F2 G2) AG (F2 BAGF || %23
[M:4/4] G6) AB | c2 d2 d2 c2 | (c2 Bc d2) c2 | (de f2 e2) c2 | A2 F2 d2 B>d | c4 c4 | [Ac]8 | %30
 z4 c4 | f2 f2 f2 f2 | g4 B4 | A8 | c4 f2 f2 | d4 c4 | (B2 c2 de f2 | g2 f2) (e2 d2) | e4 z2 f2 | %39
 !wedge!c4 !wedge!c4 | !wedge!c4 z2 c2 | !wedge!B4 !wedge!d4 | !wedge![ce]4 z2 f2 | (c>dcB A2) f2 | %44
 (f2 e2 d2) d2 | c4 c4 | c8 |] %47
V:2
"_Tis by the faith of  joys to come  We  walk  through  de  –  serts      dark as   night;  Till we  arrive  at  heav'n our home, at heav'n  our home," F2 | %1
 A2 F2 G2 A2 | F2 GF E2 E2 | FE (3DEF ED (3CDE | DC =B,2 C2 C2 | F2 G2 A2 G2 | F2 E2 F2 G2 | %7
 FA G2 G4 | %8
"_Faith is  our  guide,    and  faith our light.         The want of sight she well supplies, She  makes  the       pear   –    ly         gates     ap  –   pear;" A2 G G A>BA G | %9
 F2 E2 F4- | F2 z4 [CF]2 | F2 A2 G2 F2 | B2 G2 A3 G | AG F2 (3FGA BA | GA/F/ G/E/F E4 | %15
"_Far  into   distant   worlds   she     pries,  And   brings       e   –  ter      –      nal     glo – ries  near.      Cheerful we tread the desert through,  While" A2 A F G2 E2 | %16
 FC (3DEF E3 E | F3 A G3 A | GF G2 A4 ||[M:6/4] F2 A2 A2 A4 G2 | (F2 C2) C2 C4 C2 | %21
"_faith inspires   a         hea – venly ray;  ______________ Though  lions  roar,  and  tem       –      pests  blow, _______  And   rocks and dangers" (D2 E2) F2 E4 FG | %22
 (A2 G2) FG (A2 GABA ||[M:4/4] G6) FG | A2 F2 BA G2 | (A2 G2 F2) F2 | (G2 AF G2) F2 | E2 D2 G2 G2 | %28
"_fill the  way.      So Abram, by  divine  command,  Left his own house to walk ____________  with        God;    His faith beheld   the promised" F4 E4 | %29
 F8 | z4 F4 | A2 A2 A2 A2 | [Gc]4 (F2 G2) | F8 | A4 A2 A2 | F4 F4 | (F2 EF G2 A2 | B2 A2) G4 | %38
 G4 z2 F2 | !wedge!A4 !wedge!G4 | !wedge!A4 z2 A2 | !wedge!F4 !wedge!G4 | %42
"_land,        And  fired ____________   his   zeal _______    a   –   long    the     road." !wedge![EG]4 z2 A2 | %43
 (A2 G2 FG) A2 | (B2 c2 B2) B2 | A4 G4 | A8 |] %47
V:3
 F2 | c2 A2 B2 c2 | dc BA G2 G2 | AG F2 GF E2 | FE D2 C4 | %5
 z4 z2"_Till      we   arrive   at  heav'n  our  home," C2 | F2 G2 A2 G2 | Ac =B2 c4 | %8
 f2 e d c>dc B | A2 G2 F4- | F2 z4 F2 | A2 A2 d2 c2 | f2 e2 f3 e | fe dc (3def gf | ed c=B c4 | %15
 f2 c A B2 G2 | FE D2 C3 C | F>GA F G>AB/c/ d | cf e2 f4 ||[M:6/4] A2 c2 c2 c4 B2 | %20
 (A2 F2) F2 F4 G2 | (A2 G2) AB c4 de | (f2 e2) d2 (d6 ||[M:4/4] c6) c2 | f2 f2 gf e2 | %25
 (fedc f2) c2 | (B2 A>B G2) AB | c2 [FA]2 B2 G2 | A4 G4 | F8 | z4 F4 | c2 c2 c2 c2 | c4 d4 | c8 | %34
 f4 c2 A2 | B4 c4 | (d2 c2 B2 A2 | G2 A2) (B3 c/d/) | c4 z2 c2 | !wedge!f4 !wedge!e4 | %40
 !wedge!f4 z2 e2 | !wedge!d4 !wedge!=B4 | !wedge!c4 z2 c2 | (f2 e2 d2) c2 | (d2 e2 f2) g2 | f4 e4 | %46
 f8 |] %47
V:4
 F,2 | F,2 A,2 G,2 F,2 | B,A, G,F, C,2 C,2 | F,C, D,2 G,,2 A,,2 | F,,2 G,,2 C,4 | z4 z2 C,2 | %6
 D,2 C,2 F,2 E,2 | F,2 G,2 C,4 | F,2 [G,C] B, A,>G,F, B,, | C,2 C,2 F,,4- | F,,2 z4 F,2 | %11
 F,2 F,2 G,2 A,2 | B,2 C2 F,3 C, | F,C, (3D,E,F, B,A, G,A, | G,F, E,D, C,4 | F,2 F, F, B,,2 C,2 | %16
 F,G, A,B, C3 B, | A,>G,F, F, B,>A,G, F, | C2 C,2 F,4 ||[M:6/4] F,2 F,2 F,2 F,4 G,2 | %20
 (A,2 C2) A,2 F,4 C,2 | (F,2 E,2) D,2 C,4 F,E, | (D,2 C,2) D,E, (F,2 G,2 G,,2 ||[M:4/4] C,6) F,2 | %24
 F,2 B,2 G,2 C2 | (F,2 G,A, B,2) A,2 | (G,2 F,2 C,2) F,2 | C,2 D,2 B,,2 B,,2 | C,4 C,4 | F,,8 | %30
 z4 F,4 | F,2 F,2 F,2 F,2 | C,4 B,,4 | F,8 | F,4 F,2 F,2 | B,,4 F,4 | (B,2 A,2 G,2 F,2 | %37
 E,2 F,2) G,4 | C,4 z2 F,2 | !wedge!F,4 !wedge!C,4 | !wedge!F,4 z2 A,2 | !wedge!B,4 !wedge!G,4 | %42
"___________________________________________________\nEdited by B. C. Johnston, 2018\n   1. Measure 39, Counter: first note changed from F to G." !wedge!C,4 z2 F,2 | %43
 (F,2 C,2 D,E,) F,2 | (B,2 A,2 B,>A,) G,2 | [C,C]4 C,4 | [F,,F,]8 |] %47

